X:1
T:Lewisham, 87.87 D
T:Lewisham, 87.87 D
T:Frank B. Smith, 1904
T:Public Domain Courtesy of the Cyber Hymnal™
C:Frank B. Smith, 1904
Z:Public Domain
Z:Courtesy of the Cyber Hymnal™
%%score ( 1 2 ) ( 3 4 )
L:1/8
Q:1/4=108
M:4/4
K:A
V:1 treble 
V:2 treble 
V:3 bass 
V:4 bass 
V:1
 [Ae]3 [Ae] [Ac]3 [Ec] | [FA]2 [FA]2 [DF]2 [CE]2 | [EA]2 [EA]2 (AB) [Ac]2 | [EB]2 [FA]2 [GB]4 | %4
 [Ae]3 [Ae] [Ac]3 [Ec] | [FA]2 [FA]2 [DF]2 [CE]2 | [EA]2 [EA]2 [Ec]2 A2 | [Ac]3 [GB] [EA]4 | %8
 [Fd]3 [Fd] [Fd]2 [EB]2 | [Ec]3 [Ec] [Ec]2 [CA]2 | [Ec]2 [Ae]2 [Ae]2 [Ae]2 | [Ac]2 A2 [GB]4 | %12
 [Ae]3 [Ae] [Ac]3 [Ec] | [FA]2 [FA]2 [DF]2 [CE]2 | [EA]2 [EA]2 [Ec]2 A2 | [Ac]3 [GB] [EA]4 |] %16
V:2
 x8 | x8 | x4 E2 x2 | x8 | x8 | x8 | x6 A2 | x8 | x8 | x8 | x8 | x2 A2 x4 | x8 | x8 | x6 A2 | x8 |] %16
V:3
 [A,C]3 [A,C] [A,E]3 [A,E] | [D,D]2 [D,A,]2 [A,,A,]2 [A,,A,]2 | [A,C]2 [A,C]2 (CD) [A,E]2 | %3
 [G,E]2 [F,D]2 [E,E]4 | [A,C]3 [A,C] [A,E]3 [A,E] | [D,D]2 [D,A,]2 [A,,A,]2 [A,,A,]2 | %6
 [A,C]2 [A,C]2 A,2 [F,C]2 | [E,E]3 [E,D] [A,,C]4 | [D,A,]3 [D,A,] [D,A,]2 [E,G,]2 | %9
 [A,,A,]3 [A,,A,] [A,,A,]2 [A,,E,]2 | A,2 [A,C]2 [A,C]2 [A,C]2 | [A,C]2 [F,D]2 [E,E]4 | %12
 [A,C]3 [A,C] [A,E]3 [A,E] | [D,D]2 [D,A,]2 [A,,A,]2 [A,,A,]2 | [A,C]2 [A,C]2 A,2 [F,C]2 | %15
 [E,E]3 [E,D] [A,,C]4 |] %16
V:4
 x8 | x8 | x4 A,2 x2 | x8 | x8 | x8 | x4 A,2 x2 | x8 | x8 | x8 | A,2 x6 | x8 | x8 | x8 | %14
 x4 A,2 x2 | x8 |] %16

